icons/svg/file-move.svg

﻿<?xml version="1.0" encoding="utf-8"?>
<!DOCTYPE svg PUBLIC "-//W3C//DTD SVG 1.1//EN" "http://www.w3.org/Graphics/SVG/1.1/DTD/svg11.dtd">
<svg xmlns="http://www.w3.org/2000/svg" xmlns:xlink="http://www.w3.org/1999/xlink" version="1.1" baseProfile="full" width="24" height="24" viewBox="0 0 24.00 24.00" enable-background="new 0 0 24.00 24.00" xml:space="preserve">
	<path fill="#000000" fill-opacity="1" stroke-width="0.2" stroke-linejoin="round" d="M 6.00125,1.9975L 13.9987,1.9975L 20,7.9975L 20,20C 20,21.1037 19.1012,21.9975 17.9975,21.9975L 5.99125,21.9975C 4.8875,21.9975 3.99875,21.1037 3.99875,20L 4.00875,3.99875C 4.00875,2.895 4.8925,1.9975 6.00125,1.9975 Z M 12,14L 6,13.9972L 6,17.0009L 12,17.0037L 12,19L 15.9987,15.4987L 12,12.0038L 12,14 Z M 12.9975,3.49585L 12.9975,8.99875L 18.5012,8.99875L 12.9975,3.49585 Z "/>
</svg>

<svg xmlns="http://www.w3.org/2000/svg" version="1.1" baseProfile="full" width="24" height="24" viewBox="0 0 24.00 24.00" xml:space="preserve"><path fill="#000" fill-opacity="1" stroke-width=".2" stroke-linejoin="round" d="M6 1.998h8l6 6V20c0 1.104-.9 1.997-2.003 1.997H5.99C4.888 21.997 4 21.104 4 20l.01-16c0-1.105.883-2.002 1.99-2.002zM12 14l-6-.003V17l6 .004V19l4-3.5-4-3.496V14zm.998-10.504V9H18.5L13 3.495z"/></svg>
